img/star-check.svg

<svg width="43" height="44" viewBox="0 0 43 44" fill="none" xmlns="http://www.w3.org/2000/svg">
<path d="M28.5583 16.4135L20.1603 25.8204L15.8986 21.5592C15.607 21.2677 15.1349 21.2677 14.8434 21.5592C14.5518 21.8508 14.5518 22.3229 14.8434 22.6145L19.6633 27.4344C19.8031 27.5747 19.9931 27.6528 20.1911 27.6528C20.1981 27.6528 20.2051 27.6528 20.212 27.6523C20.4175 27.6463 20.611 27.5568 20.7478 27.4035L29.6722 17.4075C29.9468 17.1 29.92 16.6284 29.6125 16.3538C29.3041 16.0796 28.8334 16.1065 28.5583 16.4135Z" fill="black"/>
<path d="M42.809 21.8757C42.8229 21.819 42.8324 21.7603 42.8324 21.6991C42.8324 19.7101 40.7692 18.6822 38.9483 17.7748C37.6557 17.131 36.3199 16.4648 35.9642 15.6255C35.602 14.7688 36.1134 13.3728 36.607 12.022C37.2955 10.1399 38.007 8.19415 36.694 6.88221C35.4065 5.59465 33.5239 6.03047 31.7025 6.45386C30.4279 6.74938 29.109 7.05435 28.2309 6.68321C27.3736 6.32052 26.6612 5.19614 25.9722 4.10759C24.9727 2.53097 23.8408 0.743408 21.8761 0.743408C19.908 0.743408 18.7975 2.56978 17.8184 4.18172C17.1388 5.30062 16.4358 6.45684 15.5796 6.81903C14.7045 7.18968 13.3717 6.85386 12.0831 6.52998C10.2473 6.06928 8.34927 5.59067 7.05873 6.88271C5.75475 8.18619 6.38659 10.1419 6.99853 12.034C7.43534 13.3837 7.88659 14.7797 7.52141 15.6439C7.16519 16.4867 5.88858 17.1469 4.65325 17.7857C2.9035 18.6902 0.919922 19.7155 0.919922 21.7001C0.919922 21.7618 0.929872 21.821 0.943803 21.8782C0.929872 21.9349 0.92042 21.9937 0.92042 22.0548C0.92042 24.0394 2.904 25.0648 4.65425 25.9693C5.88858 26.6076 7.16569 27.2678 7.52191 28.1106C7.88709 28.9748 7.43584 30.3708 6.99903 31.721C6.38758 33.6126 5.75524 35.5678 7.05873 36.8718C8.35027 38.1638 10.2483 37.6867 12.0836 37.2245C13.3727 36.9011 14.706 36.5663 15.5806 36.9364C16.4363 37.2981 17.1393 38.4543 17.8189 39.5728C18.7985 41.1842 19.9085 43.0106 21.8766 43.0106C23.8413 43.0106 24.9737 41.223 25.9727 39.6464C26.6622 38.5578 27.3746 37.4335 28.2304 37.0708C29.112 36.6986 30.4284 37.0041 31.7025 37.3001C33.5229 37.7225 35.4065 38.1603 36.6931 36.8723C38.0075 35.5598 37.2955 33.6136 36.607 31.732C36.113 30.3812 35.602 28.9852 35.9637 28.1295C36.3199 27.2897 37.6557 26.6235 38.9483 25.9797C40.7687 25.0728 42.8324 24.0444 42.8324 22.0553C42.8329 21.9922 42.8229 21.933 42.809 21.8757ZM38.2831 24.6419C36.7483 25.4066 35.1612 26.1976 34.5896 27.5464C33.999 28.9444 34.6125 30.6215 35.2055 32.2429C35.7567 33.7509 36.2781 35.1762 35.6378 35.815C34.9368 36.5175 33.5289 36.1907 32.0398 35.8454C30.5334 35.4961 28.9756 35.1344 27.6493 35.6951C26.3632 36.2394 25.5239 37.5648 24.712 38.8464C23.8418 40.2195 23.0199 41.5165 21.8766 41.5165C20.7478 41.5165 19.9448 40.1951 19.094 38.7961C18.2916 37.4752 17.4612 36.1091 16.1617 35.5603C14.8259 34.9941 13.2473 35.3912 11.7189 35.7757C10.2214 36.1514 8.80698 36.5086 8.11395 35.815C7.45574 35.1573 7.9234 33.7106 8.41843 32.1787C8.93932 30.5693 9.47713 28.9046 8.89604 27.528C8.32987 26.1887 6.80947 25.4026 5.33932 24.6419C3.83435 23.8643 2.41246 23.1295 2.41246 22.0534C2.41246 21.9917 2.40251 21.9325 2.38858 21.8748C2.40251 21.818 2.41196 21.7593 2.41196 21.6981C2.41196 20.622 3.83335 19.8872 5.33833 19.1096C6.80898 18.3494 8.32987 17.5633 8.89554 16.223C9.47664 14.8469 8.93883 13.1827 8.41793 11.5728C7.92291 10.0409 7.45475 8.59415 8.11395 7.93595C8.80549 7.24291 10.2199 7.59913 11.7184 7.97575C13.2458 8.35933 14.8244 8.75784 16.1607 8.19167C17.4602 7.64241 18.2906 6.27624 19.094 4.95535C19.9443 3.55585 20.7473 2.23445 21.8761 2.23445C23.0194 2.23445 23.8413 3.53147 24.711 4.9051C25.5234 6.18669 26.3627 7.51206 27.6493 8.05684C28.9756 8.61754 30.5334 8.25585 32.0398 7.90609C33.5289 7.56082 34.9363 7.23395 35.6383 7.93694C36.2776 8.57525 35.7562 10.0001 35.205 11.5086C34.612 13.1305 33.9985 14.8076 34.5896 16.2061C35.1602 17.5544 36.7478 18.3454 38.2826 19.1101C39.8547 19.8932 41.3398 20.6335 41.3398 21.6981C41.3398 21.7598 41.3498 21.819 41.3637 21.8762C41.3498 21.933 41.3403 21.9917 41.3403 22.0529C41.3403 23.119 39.8552 23.8588 38.2831 24.6419Z" fill="black"/>
</svg>

<svg width="43" height="44" fill="none" xmlns="http://www.w3.org/2000/svg"><path d="M28.558 16.413L20.16 25.82l-4.26-4.26a.746.746 0 10-1.056 1.055l4.82 4.82c.14.14.33.218.528.218h.021a.746.746 0 00.536-.25l8.924-9.995a.746.746 0 10-1.114-.995z" fill="#000"/><path d="M42.809 21.876a.739.739 0 00.023-.177c0-1.989-2.063-3.017-3.884-3.924-1.292-.644-2.628-1.31-2.984-2.15-.362-.856.15-2.252.643-3.603.688-1.882 1.4-3.828.087-5.14-1.288-1.287-3.17-.852-4.992-.428-1.274.295-2.593.6-3.471.23-.857-.363-1.57-1.488-2.259-2.576-1-1.577-2.131-3.365-4.096-3.365-1.968 0-3.079 1.827-4.058 3.439-.68 1.119-1.382 2.275-2.238 2.637-.876.37-2.208.035-3.497-.289-1.836-.46-3.734-.94-5.024.353-1.304 1.303-.672 3.259-.06 5.151.436 1.35.888 2.746.522 3.61-.356.843-1.632 1.503-2.868 2.142C2.903 18.69.92 19.716.92 21.7c0 .062.01.121.024.178a.738.738 0 00-.024.177c0 1.984 1.984 3.01 3.734 3.914 1.235.639 2.512 1.299 2.868 2.142.365.864-.086 2.26-.523 3.61-.611 1.892-1.244 3.847.06 5.15 1.291 1.293 3.19.816 5.025.353 1.289-.323 2.622-.658 3.497-.288.855.362 1.558 1.518 2.238 2.637.98 1.611 2.09 3.438 4.058 3.438 1.964 0 3.097-1.788 4.096-3.365.69-1.088 1.402-2.212 2.257-2.575.882-.372 2.198-.067 3.473.23 1.82.421 3.704.86 4.99-.429 1.315-1.312.602-3.258-.086-5.14-.494-1.35-1.005-2.747-.643-3.602.356-.84 1.692-1.506 2.984-2.15 1.82-.907 3.884-1.936 3.884-3.925a.73.73 0 00-.023-.18zm-4.526 2.766c-1.535.765-3.122 1.556-3.693 2.904-.591 1.398.022 3.076.615 4.697.552 1.508 1.073 2.933.433 3.572-.701.703-2.11.376-3.598.03-1.507-.349-3.064-.71-4.39-.15-1.287.544-2.126 1.87-2.938 3.151-.87 1.373-1.692 2.67-2.835 2.67-1.13 0-1.932-1.32-2.783-2.72-.802-1.32-1.633-2.687-2.932-3.236-1.336-.566-2.915-.169-4.443.216-1.498.375-2.912.733-3.605.039-.658-.658-.19-2.104.304-3.636.521-1.61 1.06-3.274.478-4.651-.566-1.34-2.087-2.125-3.557-2.886-1.505-.778-2.927-1.512-2.927-2.589 0-.061-.01-.12-.023-.178a.739.739 0 00.023-.177c0-1.076 1.421-1.81 2.926-2.588 1.471-.76 2.992-1.547 3.558-2.887.58-1.376.043-3.04-.478-4.65-.495-1.532-.963-2.979-.304-3.637.691-.693 2.106-.337 3.604.04 1.528.383 3.106.782 4.443.216 1.3-.55 2.13-1.916 2.933-3.237.85-1.4 1.653-2.72 2.782-2.72 1.143 0 1.965 1.296 2.835 2.67.812 1.282 1.652 2.607 2.938 3.152 1.327.56 2.884.199 4.39-.15 1.49-.346 2.897-.673 3.6.03.639.638.117 2.063-.434 3.572-.593 1.621-1.206 3.299-.615 4.697.57 1.348 2.158 2.14 3.693 2.904 1.572.783 3.057 1.524 3.057 2.588 0 .062.01.121.024.178a.74.74 0 00-.024.177c0 1.066-1.485 1.806-3.057 2.589z" fill="#000"/></svg>
